icons/mobile/24/svg/signature-properties-24.svg

<svg width="24" height="24" viewBox="0 0 24 24" fill="none" xmlns="http://www.w3.org/2000/svg">
<path d="M6.625 17.2499C7.10821 17.2499 7.49993 17.6417 7.5 18.1249C7.5 18.6082 7.10825 18.9999 6.625 18.9999H2.875C2.39175 18.9999 2 18.6082 2 18.1249C2.00007 17.6417 2.39179 17.2499 2.875 17.2499H6.625Z" fill="black"/>
<path d="M13.875 17.2499C14.3582 17.2499 14.7499 17.6417 14.75 18.1249C14.75 18.6082 14.3582 18.9999 13.875 18.9999H10.125C9.64175 18.9999 9.25 18.6082 9.25 18.1249C9.25007 17.6417 9.64179 17.2499 10.125 17.2499H13.875Z" fill="black"/>
<path d="M21.125 17.2499C21.6082 17.2499 21.9999 17.6417 22 18.1249C22 18.6082 21.6082 18.9999 21.125 18.9999H17.375C16.8918 18.9999 16.5 18.6082 16.5 18.1249C16.5001 17.6417 16.8918 17.2499 17.375 17.2499H21.125Z" fill="black"/>
<path d="M8.80566 5.00385C9.79763 5.06984 10.5633 5.78595 10.6924 6.75189C11.1054 9.84285 11.485 11.391 11.751 12.163C11.8009 12.0371 11.8551 11.8943 11.915 11.7304C12.215 10.9016 12.8248 10.1855 13.6426 9.85541C14.9984 9.30946 16.4626 9.76502 17.2627 10.8818L17.8857 11.7529C18.2617 12.2798 18.8698 12.5916 19.5166 12.5917H21.125C21.6079 12.5917 21.9998 12.9839 22 13.4667C22 13.9497 21.608 14.3417 21.125 14.3417H19.5166C18.3058 14.3416 17.1688 13.7582 16.4639 12.7734L15.8389 11.9013C15.5619 11.5133 15.1128 11.3196 14.6318 11.3876C14.1479 11.4547 13.7606 11.7686 13.5977 12.2255C13.0438 13.7721 12.616 14.5633 11.8262 14.5634H11.7979C10.6359 14.5333 9.79994 13.2838 8.95898 6.98529C8.93598 6.81429 8.81287 6.76387 8.71387 6.75287C8.58101 6.73494 8.48644 6.79119 8.44043 6.91303L6.52734 11.9492C5.98337 13.3811 4.57912 14.3426 3.0332 14.3427H2.87695L2.875 14.3417C2.392 14.3417 2 13.9497 2 13.4667C2.00017 12.9839 2.39211 12.5917 2.875 12.5917H3.03125C3.8551 12.5916 4.60069 12.0839 4.8877 11.3271L6.76367 6.39154C7.08463 5.54665 7.9038 4.94403 8.80566 5.00385Z" fill="black"/>
</svg>

<!-- This Source Code Form is subject to the terms of the Mozilla Public
   - License, v. 2.0. If a copy of the MPL was not distributed with this
   - file, You can obtain one at http://mozilla.org/MPL/2.0/. -->
<svg xmlns="http://www.w3.org/2000/svg" width="24" height="24" fill="none" viewBox="0 0 24 24">
    <path fill="#000" d="M6.625 17.25a.875.875 0 0 1 0 1.75h-3.75a.875.875 0 1 1 0-1.75zm7.25 0a.875.875 0 0 1 0 1.75h-3.75a.875.875 0 1 1 0-1.75zm7.25 0a.875.875 0 0 1 0 1.75h-3.75a.875.875 0 1 1 0-1.75zM8.806 5.004c.992.066 1.757.782 1.886 1.748.413 3.09.793 4.639 1.059 5.411q.075-.188.164-.433c.3-.828.91-1.545 1.728-1.875 1.355-.546 2.82-.09 3.62 1.027l.623.87c.376.528.984.84 1.63.84h1.609a.876.876 0 0 1 0 1.75h-1.608a3.75 3.75 0 0 1-3.053-1.569l-.625-.872a1.24 1.24 0 0 0-1.207-.513 1.26 1.26 0 0 0-1.034.838c-.554 1.546-.982 2.337-1.772 2.337h-.028c-1.162-.03-1.998-1.28-2.839-7.578-.023-.17-.146-.221-.245-.232-.133-.018-.228.038-.274.16l-1.913 5.036a3.75 3.75 0 0 1-3.494 2.394h-.156l-.002-.001a.875.875 0 0 1 0-1.75h.156c.824 0 1.57-.508 1.857-1.265l1.876-4.935c.32-.845 1.14-1.448 2.042-1.388" />
</svg>
